usr/share/icons/biglinux-icons-material/symbolic/status/apport.svg

<?xml version="1.0" encoding="UTF-8" standalone="no"?>
<svg
   version="1.1"
   id="svg2"
   viewBox="0 0 22 22"
   width="22"
   height="22"
   xmlns="http://www.w3.org/2000/svg"
   xmlns:svg="http://www.w3.org/2000/svg">
  <defs
     id="defs3051">
    <style
       id="current-color-scheme"
       type="text/css">
      .ColorScheme-Text {
        color:#31363b;
      }
      </style>
  </defs>
  <g
     id="22-22-apport"
     transform="translate(0,-10)">
    <path
       id="path7"
       style="fill:currentColor;fill-opacity:1;stroke:none"
       class="ColorScheme-Text"
       d="m 6,15 c -0.5539994,0 -1,0.446001 -1,1 h 1 z m 0,1 v 2 h 2 v -2 z m 2,0 H 9 V 15 H 8 Z m 0,2 v 1 H 9 V 18 Z M 6,18 H 5 v 1 h 1 z m 7,-3 v 1 h 1 v -1 z m 1,1 v 2 h 2 v -2 z m 2,0 h 1 c 0,-0.553999 -0.446001,-1 -1,-1 z m 0,2 v 1 h 1 v -1 z m -2,0 h -1 v 1 h 1 z m -5,3 v 2 h 4 v -2 z m 4,2 v 2 h 2 v -2 z m 2,2 v 2 h 1 c 0.553999,0 1,-0.446001 1,-1 V 25 Z M 9,23 H 7 v 2 H 9 Z M 7,25 H 5 v 1 c 0,0.553999 0.4460006,1 1,1 h 1 z" />
    <path
       id="path9"
       d="M 0,10 V 32 H 22 V 10 Z"
       style="fill:none" />
    <path
       id="rect348"
       style="fill:currentColor;fill-opacity:1;stroke:none"
       d="m 6,13 c -1.6619983,0 -3,1.338002 -3,3 v 10 c 0,1.661998 1.3380017,3 3,3 h 10 c 1.661998,0 3,-1.338002 3,-3 V 16 c 0,-1.661998 -1.338002,-3 -3,-3 z m 0,1 h 10 c 1.107999,0 2,0.892001 2,2 v 10 c 0,1.107999 -0.892001,2 -2,2 H 6 C 4.8920011,28 4,27.107999 4,26 V 16 c 0,-1.107999 0.8920011,-2 2,-2 z"
       class="ColorScheme-Text" />
  </g>
</svg>

<?xml version="1.0" encoding="UTF-8"?>
<svg xmlns="http://www.w3.org/2000/svg" xmlns:xlink="http://www.w3.org/1999/xlink" xmlns:cc="http://creativecommons.org/ns#" xmlns:dc="http://purl.org/dc/elements/1.1/" xmlns:rdf="http://www.w3.org/1999/02/22-rdf-syntax-ns#" xmlns:inkscape="http://www.inkscape.org/namespaces/inkscape" xmlns:sodipodi="http://sodipodi.sourceforge.net/DTD/sodipodi-0.dtd" width="22" height="22">
    <style type="text/css" id="current-color-scheme">
      .ColorScheme-Text {
        color:#31363b;
      }
      </style>
    <g id="22-22-apport" transform="translate(0,-10)">
    <path id="path7" class="ColorScheme-Text" d="M 3 13 L 3 29 L 4 29 L 19 29 L 19 28 L 19 13 L 18 13 L 4 13 L 3 13 z M 4 14 L 18 14 L 18 28 L 4 28 L 4 14 z M 5 15 L 5 16 L 6 16 L 6 15 L 5 15 z M 6 16 L 6 18 L 8 18 L 8 16 L 6 16 z M 8 16 L 9 16 L 9 15 L 8 15 L 8 16 z M 8 18 L 8 19 L 9 19 L 9 18 L 8 18 z M 6 18 L 5 18 L 5 19 L 6 19 L 6 18 z M 13 15 L 13 16 L 14 16 L 14 15 L 13 15 z M 14 16 L 14 18 L 16 18 L 16 16 L 14 16 z M 16 16 L 17 16 L 17 15 L 16 15 L 16 16 z M 16 18 L 16 19 L 17 19 L 17 18 L 16 18 z M 14 18 L 13 18 L 13 19 L 14 19 L 14 18 z M 9 21 L 9 23 L 13 23 L 13 21 L 9 21 z M 13 23 L 13 25 L 15 25 L 15 23 L 13 23 z M 15 25 L 15 27 L 17 27 L 17 25 L 15 25 z M 9 23 L 7 23 L 7 25 L 9 25 L 9 23 z M 7 25 L 5 25 L 5 27 L 7 27 L 7 25 z " style="fill:currentColor;fill-opacity:1;stroke:none"/>
    <path id="path9" d="M 0 10 L 0 32 L 22 32 L 22 10 L 0 10 z " style="opacity:1;fill:none"/>
  </g>
</svg>
